icons/expand.svg

<svg xmlns="http://www.w3.org/2000/svg" width="24" height="24" fill="none"><g clip-path="url(#a)"><g><path fill="#121212" d="M21 5.80231H3V3.80231H21V5.80231ZM11 16.3698L12 17.4343L13 16.3698L19.071 10.2978L20.485 11.7118L12 20.1978L3.515 11.7128L4.929 10.2988L11 16.3678V16.3698Z"/></g></g><defs><clipPath id="a"><rect width="24" height="24" fill="white"/></clipPath></defs></svg>

<svg width="24" height="24" fill="none" xmlns="http://www.w3.org/2000/svg"><g clip-path="url(#a)"><path d="M21 5.802H3v-2h18v2ZM11 16.37l1 1.064 1-1.064 6.071-6.072 1.414 1.414L12 20.198l-8.485-8.485 1.414-1.414L11 16.368v.002Z" /></g><defs><clipPath id="a"><path fill="#fff" d="M0 0h24v24H0z"/></clipPath></defs></svg>
